Adwaita++/status/16/network-cellular-hspa.svg

<svg height="16" width="16" xmlns="http://www.w3.org/2000/svg">
  <path d="m2.063 0c-1.152 0-2.063.912-2.063 2.063v11.874c0 1.151.912 2.063 2.063 2.063h11.874c1.151 0 2.063-.912 2.063-2.063v-11.874c0-1.152-.912-2.063-2.063-2.063zm2 3h2v4h3.937v-4h2v10h-2v-4h-3.938v4h-2z" fill="#474747"/>
</svg>

<svg xmlns="http://www.w3.org/2000/svg" width="16" height="16">
    <path d="M2.063 0C.911 0 0 .912 0 2.063v11.874C0 15.088.912 16 2.063 16h11.874C15.088 16 16 15.088 16 13.937V2.063C16 .911 15.088 0 13.937 0zm2 3h2v4H10V3h2v10h-2V9H6.062v4h-2z" style="marker:none" color="#bebebe" overflow="visible" fill="#474747"/>
</svg>
